svgs/keet.svg

<svg width="192" height="192" viewBox="0 0 192 192" fill="none" xmlns="http://www.w3.org/2000/svg">
<path d="M82.865 81C78.5793 81 77.0257 88.5439 78.0971 91C78.8114 90.7368 81.1507 90.2105 82.865 90.2105C84.5792 90.2105 86.7042 90.7368 87.4186 91C88.49 88.5439 87.1506 81 82.865 81Z" stroke="black" stroke-width="10" stroke-linejoin="round"/>
<path d="M97.77 40C96.0666 40.1437 94.0912 40.2383 91.9061 40.2609M97.77 40C95.7935 40 93.8377 40.0882 91.9061 40.2609M97.77 40C121.838 40 142.851 53.0814 154.087 72.5222M91.9061 40.2609C76.3462 40.4221 50.1505 37.4327 35.77 22C35.27 34 35.5292 45.5 45.0292 49.5C39.1958 50.6667 28.0701 57.6 27.2701 60C26.4701 62.4 38.7762 65.6667 45.0292 67C37.3155 77.6873 32.77 90.8128 32.77 105C32.77 140.899 61.8715 170 97.77 170C111.026 170 123.356 166.032 133.635 159.218M154.087 72.5222C149.702 68.6977 143.92 66.3718 137.77 66.3718C124.515 66.3718 113.77 77.1744 113.77 90.5C113.77 113 137.27 116.5 137.27 138C137.27 145.725 135.659 154.133 133.635 159.218M154.087 72.5222C157.03 75.0895 159.344 78.3322 160.718 82C163.34 89.1729 164.77 96.9194 164.77 105C164.77 129.593 151.52 151.09 131.77 162.744C132.407 161.925 133.039 160.716 133.635 159.218" stroke="black" stroke-width="12" stroke-linejoin="round"/>
</svg>

<svg xmlns="http://www.w3.org/2000/svg" width="192" height="192" fill="none" viewBox="0 0 192 192"><path stroke="#000" stroke-linejoin="round" stroke-width="10" d="M82.865 81c-4.286 0-5.84 7.544-4.768 10 .714-.263 3.054-.79 4.768-.79s3.84.527 4.554.79c1.071-2.456-.268-10-4.554-10Z"/><path stroke="#000" stroke-linejoin="round" stroke-width="12" d="M97.77 40a80 80 0 0 1-5.864.26M97.77 40q-2.966.001-5.864.26M97.77 40c24.068 0 45.081 13.081 56.317 32.522m-62.18-32.261C76.346 40.422 50.15 37.433 35.77 22c-.5 12-.24 23.5 9.26 27.5-5.834 1.167-16.96 8.1-17.76 10.5s11.506 5.667 17.76 7c-7.715 10.687-12.26 23.813-12.26 38 0 35.899 29.101 65 65 65 13.256 0 25.586-3.968 35.865-10.782m20.452-86.696c-4.385-3.824-10.167-6.15-16.317-6.15-13.255 0-24 10.802-24 24.128 0 22.5 23.5 26 23.5 47.5 0 7.725-1.611 16.133-3.635 21.218m20.452-86.696c2.943 2.567 5.257 5.81 6.631 9.478a66.9 66.9 0 0 1 4.052 23c0 24.593-13.25 46.09-33 57.744.637-.819 1.269-2.028 1.865-3.526"/></svg>
